X: 42
T:Goodbye Girls I'm Going To Boston
S:via PR
M:2/2
L:1/2
K:D
A/|"D"D/F/ A3/4A/4|"G"B/>B/ G/E/| "A7"E/F/ G/G/| "D"A/>A/ F/D/|
"D"D/F/ A3/4A/4| "G"B/>B/ G/E/| "A7"A/A/ G/E/| "D"D3/ :|
|:A/ | "D"d/d/4d/4 d/e/| d A/B/| "C"=c/c/4c/4 c/d/| =c A|
"D"d/d/4d/4 d/e/| "D"d A3/4B/4| "C"=c/A/ G/E/| "D"D3/ :|

